X:266
T:Reel 266
M:4/4
K:Dmaj
L:1/8
B>E (3FED BdAF| (3Bcd AF EFAF|B>E (3FED BdcA||BdAF EDEA:||2B>dA (3FED B2BA|B>E (3EEE B2EA|Beec B2cA|Beec BAFA|Beec B2AF|EEec dAFA|Beec d2cA|BdcA BFAF|Eeec BAFA|
